X:1
%
T:Hunter Billy's
M:C
L:1/8
R:Reel
S:Rev. Luke Donnellan – “Oriel Songs and Dances",
S:Journal of the County Louth Archaeological Society (vol. II, No. 2, 1909; No. 76)
Z:AK/Fiddler’s Companion
K:Amin
f|eA (3cBA Bcdf|e2 fd edBd|eA (3cBA Bcde|d2 ed Bcde|
eA (3cBA Bcdf|e2 fd edBd|g2 ge f2 fe|d2 ed Bcdf||
eaaf eaaf|e2 fd edBd|efgf efgf|d2 ed Bcde|
eaaf eaaf|e2 fd edBd|g2 ge f2 fe|d2 ed Bcdf||

